src/app/assets/svg/call-center.svg

<?xml version="1.0" encoding="UTF-8"?>
<svg width="138px" height="138px" viewBox="0 0 138 138" version="1.1" xmlns="http://www.w3.org/2000/svg" xmlns:xlink="http://www.w3.org/1999/xlink">
    <title>Group 21</title>
    <defs>
        <polygon id="path-1" points="0.00069 0.000345 138 0.000345 138 138 0.00069 138"></polygon>
        <polygon id="path-3" points="0.897698361 0.000346875 105.521436 0.000346875 105.521436 111 0.897698361 111"></polygon>
    </defs>
    <g id="Page-1" stroke="none" stroke-width="1" fill="none" fill-rule="evenodd">
        <g id="Help-Center" transform="translate(-972.000000, -1112.000000)">
            <g id="Group-21" transform="translate(972.000000, 1112.000000)">
                <g id="Group-3">
                    <mask id="mask-2" fill="white">
                        <use xlink:href="#path-1"></use>
                    </mask>
                    <g id="Clip-2"></g>
                    <path d="M69.00069,0.000345 C107.107665,0.000345 138.00069,30.891645 138.00069,69.000345 C138.00069,107.10732 107.107665,138.000345 69.00069,138.000345 C30.89199,138.000345 0.00069,107.10732 0.00069,69.000345 C0.00069,30.891645 30.89199,0.000345 69.00069,0.000345" id="Fill-1" fill="#C2EBF5" mask="url(#mask-2)"></path>
                </g>
                <g id="Group-6" transform="translate(32.000000, 27.000000)">
                    <mask id="mask-4" fill="white">
                        <use xlink:href="#path-3"></use>
                    </mask>
                    <g id="Clip-5"></g>
                    <path d="M9.91117377,10.4794406 L55.6076,0.000346875 L74.9065508,12.2138156 C74.9065508,12.2138156 99.3995016,43.7083312 105.521436,49.8168 C101.46042,84.2701594 72.1036328,111.000347 36.4928459,111.000347 C34.742977,111.000347 33.0087475,110.936175 31.2936328,110.809566 C18.1583213,97.9040812 7.91107541,81.3841594 0.897698361,74.3859562 C0.897698361,43.8557531 9.91117377,10.4794406 9.91117377,10.4794406" id="Fill-4" fill="#9EDFEF" mask="url(#mask-4)"></path>
                </g>
                <path d="M117,69 C117,95.5104963 95.5083882,117 69.0008612,117 C42.4898893,117 21,95.5104963 21,69 C21,42.4895037 42.4898893,21 69.0008612,21 C95.5083882,21 117,42.4895037 117,69" id="Fill-7" fill="#FFFFFF"></path>
                <path d="M78.1578035,88.7653246 C76.0023121,88.7653246 73.9023121,88.5308611 71.8803468,88.0893168 C70.5398844,87.7983766 69.1473988,88.2279412 68.2300578,89.2359631 L63,95 L87,95 L87,91.8818066 C87,90.1601257 85.5867052,88.7653246 83.8421965,88.7653246 L78.1578035,88.7653246 Z" id="Fill-9" fill="#DD8F12"></path>
                <path d="M49.2344748,59.8421965 C49.2344748,61.9976879 49.4689952,64.0976879 49.9106466,66.1196532 C50.2016572,67.4601156 49.7719886,68.8526012 48.7654342,69.7699422 L43,75 L43,51 L46.1172374,51 C47.8393356,51 49.2344748,52.4150289 49.2344748,54.1595376 L49.2344748,59.8421965 Z" id="Fill-11" fill="#DD8F12"></path>
                <path d="M42.8013806,60 L34,60 C34,84.3013924 53.6995607,104 78,104 L78,95.2 C58.5593034,95.2 42.8013806,79.4414591 42.8013806,60" id="Fill-13" fill="#F9B11D"></path>
                <path d="M43,59 L35,59 C35,54.5834477 38.5827451,51 43,51 L43,59 Z" id="Fill-15" fill="#D38411"></path>
                <path d="M79,103 L79,103 L79,95 L87,95 C87,99.4181212 83.4181212,103 79,103" id="Fill-17" fill="#D38411"></path>
                <path d="M90.758,62.467 L84.871,59.978 C83.583,59.4321818 82.75,58.1090909 82.75,56.7272727 L82.75,54.9585455 C84.864,53.3832727 86.25,50.9063636 86.25,48.0909091 L86.25,44.6363636 C86.25,39.8656364 82.3335,36 77.5,36 C72.66825,36 68.75,39.8656364 68.75,44.6363636 L68.75,48.0909091 C68.75,50.9063636 70.136,53.3832727 72.25,54.9585455 L72.25,56.7272727 C72.25,58.1090909 71.41525,59.4321818 70.129,59.978 L64.24375,62.467 C61.6695,63.5551818 60,66.0528182 60,68.8181818 L60,74 L95,74 L95,68.8181818 C95,66.0528182 93.33225,63.5551818 90.758,62.467" id="Fill-19" fill="#4687C7"></path>
            </g>
        </g>
    </g>
</svg>

<svg xmlns="http://www.w3.org/2000/svg" xmlns:xlink="http://www.w3.org/1999/xlink" width="138" height="138"><defs/><defs><path id="a" d="M.001 0H138v138H.001z"/><path id="c" d="M.898 0h104.623v111H.898z"/></defs><g fill="none" fill-rule="evenodd"><g><mask id="b" fill="#fff"><use xlink:href="#a"/></mask><path fill="#C2EBF5" d="M69 0c38.108 0 69 30.892 69 69 0 38.107-30.892 69-69 69-38.108 0-69-30.893-69-69C0 30.892 30.893 0 69 0" mask="url(#b)"/></g><g transform="translate(32 27)"><mask id="d" fill="#fff"><use xlink:href="#c"/></mask><path fill="#9EDFEF" d="M9.911 10.48L55.608 0l19.299 12.214S99.4 43.708 105.52 49.817C101.461 84.27 72.104 111 36.493 111c-1.75 0-3.484-.064-5.2-.19C18.159 97.904 7.912 81.384.899 74.386c0-30.53 9.013-63.907 9.013-63.907" mask="url(#d)"/></g><path fill="#FFF" d="M117 69c0 26.51-21.492 48-48 48-26.51 0-48-21.49-48-48s21.49-48 48-48c26.508 0 48 21.49 48 48"/><path fill="#DD8F12" d="M78.158 88.765c-2.156 0-4.256-.234-6.278-.676a3.828 3.828 0 00-3.65 1.147L63 95h24v-3.118c0-1.722-1.413-3.117-3.158-3.117h-5.684zM49.234 59.842c0 2.156.235 4.256.677 6.278a3.83 3.83 0 01-1.146 3.65L43 75V51h3.117c1.722 0 3.117 1.415 3.117 3.16v5.682z"/><path fill="#F9B11D" d="M42.801 60H34c0 24.301 19.7 44 44 44v-8.8c-19.44 0-35.199-15.759-35.199-35.2"/><path fill="#D38411" d="M43 59h-8c0-4.417 3.583-8 8-8v8zM79 103v-8h8a8 8 0 01-8 8"/><path fill="#4687C7" d="M90.758 62.467l-5.887-2.489c-1.288-.546-2.121-1.869-2.121-3.25v-1.77c2.114-1.575 3.5-4.052 3.5-6.867v-3.455c0-4.77-3.916-8.636-8.75-8.636-4.832 0-8.75 3.866-8.75 8.636v3.455c0 2.815 1.386 5.292 3.5 6.868v1.768c0 1.382-.835 2.705-2.121 3.251l-5.885 2.489C61.669 63.555 60 66.053 60 68.818V74h35v-5.182c0-2.765-1.668-5.263-4.242-6.351"/></g></svg>
